X: 0571
T: NATCHEZ HORNPIPE
C: S. Jackson
B: Oliver Ditson "The Boston Collection of Instrumental Music" 1910 p.57 #1
F: http://conquest.imslp.info/files/imglnks/usimg/8/8f/IMSLP175643-PMLP309456-bostoncollection00bost_bw.pdf
M: 2/4
L: 1/16
K: A
E2 |\
A2ce aece | fefg aecA | GAFA EAGA | BcdB AGFE |\
A2ce aece | fefg aecA | GAFA EAGA | BcdB B2A2 :|
|:\
eAAA eAAA | fefd fefd | dcdB dcdB | cded dcBA |\
A2ce aece | fefg aecA | GAFA EAGA | BcdB B2A2 :|

%%sep 1 1 500
%%sep 1 1 500
